images/logo-24-gradient.svg

<svg clip-rule="evenodd" fill-rule="evenodd" stroke-linejoin="round" stroke-miterlimit="2" viewBox="0 0 174 24" xmlns="http://www.w3.org/2000/svg" xmlns:xlink="http://www.w3.org/1999/xlink"><linearGradient id="a" gradientUnits="userSpaceOnUse" x1="128508" x2="147697" y1="24020.7" y2="24020.7"><stop offset="0" stop-color="#20abf4"/><stop offset="1" stop-color="#20abf4" stop-opacity="0"/></linearGradient><linearGradient id="b"><stop offset="0" stop-color="#24cff0"/><stop offset="1" stop-color="#1963fd"/></linearGradient><linearGradient id="c" gradientUnits="userSpaceOnUse" x1="-.087913" x2="6.720447" xlink:href="#b" y1="-.238113" y2="-.238113"/><linearGradient id="d" gradientUnits="userSpaceOnUse" x1="-.745913" x2="6.062447" xlink:href="#b" y1="-.238113" y2="-.238113"/><linearGradient id="e" gradientUnits="userSpaceOnUse" x1="-1.35291" x2="5.45545" xlink:href="#b" y1="-.238113" y2="-.238113"/><linearGradient id="f" gradientUnits="userSpaceOnUse" x1="-2.05291" x2="4.75545" xlink:href="#b" y1="-.238113" y2="-.238113"/><linearGradient id="g" gradientUnits="userSpaceOnUse" x1="-2.67491" x2="4.13345" xlink:href="#b" y1="-.238113" y2="-.238113"/><linearGradient id="h" gradientUnits="userSpaceOnUse" x1="-2.96391" x2="3.84445" xlink:href="#b" y1="-.238113" y2="-.238113"/><linearGradient id="i" gradientUnits="userSpaceOnUse" x1="-3.65791" x2="3.15045" xlink:href="#b" y1="-.238113" y2="-.238113"/><linearGradient id="j" gradientUnits="userSpaceOnUse" x1="-4.34291" x2="2.46545" xlink:href="#b" y1="-.238113" y2="-.238113"/><linearGradient id="k" gradientUnits="userSpaceOnUse" x1="-4.74891" x2="2.05945" xlink:href="#b" y1="-.238113" y2="-.238113"/><linearGradient id="l" gradientUnits="userSpaceOnUse" x1="-5.37091" x2="1.43745" xlink:href="#b" y1="-.238113" y2="-.238113"/><linearGradient id="m" gradientUnits="userSpaceOnUse" x1="-5.99291" x2=".81545" xlink:href="#b" y1="-.238113" y2="-.238113"/><clipPath id="n"><path clip-rule="evenodd" d="m124495-86698.2v13933.9c0 3845.2-3122 6967-6967 6967h-13934c-3845.10000000001 0-6966.89999999999-3121.8-6966.89999999999-6967v-13933.9c0-3845.2 3121.79999999999-6967 6966.89999999999-6967h13934c3845 0 6967 3121.8 6967 6967z"/></clipPath><g transform="matrix(.00076033 0 0 .00076033 -73 71.299)"><path d="m124495-86698.2v13933.9c0 3845.2-3122 6967-6967 6967h-13934c-3845.10000000001 0-6966.89999999999-3121.8-6966.89999999999-6967v-13933.9c0-3845.2 3121.79999999999-6967 6966.89999999999-6967h13934c3845 0 6967 3121.8 6967 6967z" fill="#003cba"/><g clip-path="url(#n)"><g transform="matrix(1.38119 0 0 1.38119 -79502.9 -116057)"><path d="m143660 36495.6h-8499-568v-12741.9l-2860 1970.7-3225-5011.2 7229-4608h7923v2516.5l-1730 7678.7 1730 6726.3z" fill="url(#a)"/><path d="m136946 94695.6c-1056 0-2093-115.20000000001-3110-345.60000000001-1018-230.39999999999-1920-604.8-2707-1123.2-788-518.40000000001-1426-1185.60000000001-1916-2001.60000000001-489-816-734-1800-734-2952 0-1113.59999999999 312-2073.59999999999 936-2880s1445-1420.8 2462-1843.2v-86.39999999999c-844-326.40000000001-1564-859.20000000001-2160-1598.40000000001-595-739.2-892-1636.8-892-2692.8s230-1968 691-2736 1070-1392 1829-1872c758-480 1627-835.2 2606-1065.59999999999s1978-345.60000000001 2995-345.60000000001c999 0 1987 115.2 2967 345.60000000001 151 35.5 3726-41.5 3871 0v20836.8c-104 28.39999999999-3635-25.40000000001-3742 0-1008 240-2040 360-3096 360z" fill="#24cff0" transform="matrix(.804624 0 0 .946524 33773.6 -53136.1)"/></g></g></g><g fill-rule="nonzero"><path d="m.299-.648c-.053 0-.079.029-.079.086v.032h.147v.1h-.143v.43h-.125v-.43h-.088v-.1h.088v-.034c0-.057.017-.103.05-.136.033-.032.08-.049.141-.049.048 0 .086.01.113.029l-.035.094c-.021-.015-.044-.022-.069-.022zm.152-.094h.125v.742h-.125z" fill="url(#c)" transform="matrix(22.4739 0 0 22.4739 27.22663999999 19.24249999999)"/><path d="m.286-.54c.079 0 .139.019.181.056.041.038.062.095.062.171v.313h-.118v-.065c-.015.023-.037.041-.065.053-.029.013-.063.019-.103.019s-.075-.007-.105-.021c-.03-.013-.053-.032-.069-.057-.017-.024-.025-.051-.025-.082 0-.048.018-.087.054-.116.035-.029.091-.043.168-.043h.138v-.008c0-.037-.011-.066-.033-.086-.023-.02-.056-.03-.1-.03-.03 0-.059.005-.088.014s-.054.022-.074.039l-.049-.091c.028-.021.062-.038.101-.049s.081-.017.125-.017zm-.017.456c.031 0 .059-.007.084-.022.024-.014.041-.034.051-.061v-.062h-.129c-.072 0-.108.024-.108.071 0 .023.009.041.027.054s.043.02.075.02z" fill="url(#d)" transform="matrix(22.4739 0 0 22.4739 42.22663999999 19.24249999999)"/><path d="m.403-.029c-.015.012-.032.021-.053.027s-.044.009-.067.009c-.059 0-.104-.015-.136-.046s-.048-.075-.048-.134v-.257h-.088v-.1h.088v-.122h.125v.122h.143v.1h-.143v.254c0 .026.006.046.019.059.013.014.031.021.055.021.028 0 .051-.007.07-.022z" fill="url(#e)" transform="matrix(22.4739 0 0 22.4739 56.22663999999 19.24249999999)"/><path d="m.584-.264c0 .009-.001.021-.002.037h-.419c.007.039.027.07.058.093s.069.035.115.035c.059 0 .107-.019.145-.058l.067.077c-.024.029-.054.05-.091.065s-.078.022-.124.022c-.059 0-.11-.012-.155-.035s-.079-.056-.103-.098c-.025-.041-.037-.088-.037-.141 0-.052.012-.099.036-.141.023-.041.056-.074.098-.097s.089-.035.142-.035c.052 0 .099.011.14.034s.073.056.096.097c.022.042.034.09.034.145zm-.27-.176c-.04 0-.074.012-.101.035-.028.024-.045.056-.051.095h.303c-.005-.039-.022-.07-.049-.094s-.061-.036-.102-.036z" fill="url(#f)" transform="matrix(22.4739 0 0 22.4739 71.22663999999 19.24249999999)"/><path d="m.082-.534h.125v.534h-.125zm.063-.088c-.023 0-.042-.007-.057-.022-.015-.014-.023-.032-.023-.053s.008-.039.023-.054c.015-.014.034-.021.057-.021s.042.007.057.02c.015.014.023.031.023.052 0 .022-.007.04-.022.055s-.035.023-.058.023z" fill="url(#g)" transform="matrix(22.4739 0 0 22.4739 85.22663999999 19.24249999999)"/><path d="m.612-.534v.453c0 .188-.096.282-.288.282-.051 0-.1-.006-.146-.019s-.084-.032-.114-.057l.056-.094c.023.019.053.035.089.047.035.011.071.017.108.017.059 0 .102-.013.129-.04s.041-.067.041-.122v-.028c-.021.023-.047.041-.078.053s-.064.018-.101.018c-.051 0-.096-.011-.137-.033-.041-.021-.074-.052-.097-.091-.024-.039-.036-.084-.036-.135s.012-.096.036-.135c.023-.038.056-.069.097-.09s.086-.032.137-.032c.039 0 .074.006.106.019.031.013.058.032.079.058v-.071zm-.285.404c.047 0 .086-.014.117-.043.03-.028.045-.065.045-.11s-.015-.081-.045-.109c-.031-.028-.07-.042-.117-.042-.048 0-.087.014-.117.042-.031.028-.046.064-.046.109s.015.082.046.11c.03.029.069.043.117.043z" fill="url(#h)" transform="matrix(22.4739 0 0 22.4739 92.22663999999 19.24249999999)"/><path d="m.385-.54c.067 0 .121.02.162.059s.061.098.061.175v.306h-.125v-.29c0-.047-.011-.082-.033-.106-.022-.023-.053-.035-.094-.035-.046 0-.082.014-.109.041-.027.028-.04.068-.04.12v.27h-.125v-.742h.125v.27c.021-.022.046-.039.077-.051.03-.011.064-.017.101-.017z" fill="url(#i)" transform="matrix(22.4739 0 0 22.4739 108.22663999999 19.24249999999)"/><path d="m.403-.029c-.015.012-.032.021-.053.027s-.044.009-.067.009c-.059 0-.104-.015-.136-.046s-.048-.075-.048-.134v-.257h-.088v-.1h.088v-.122h.125v.122h.143v.1h-.143v.254c0 .026.006.046.019.059.013.014.031.021.055.021.028 0 .051-.007.07-.022z" fill="url(#j)" transform="matrix(22.4739 0 0 22.4739 123.22663999999 19.24249999999)"/><path d="m.584-.264c0 .009-.001.021-.002.037h-.419c.007.039.027.07.058.093s.069.035.115.035c.059 0 .107-.019.145-.058l.067.077c-.024.029-.054.05-.091.065s-.078.022-.124.022c-.059 0-.11-.012-.155-.035s-.079-.056-.103-.098c-.025-.041-.037-.088-.037-.141 0-.052.012-.099.036-.141.023-.041.056-.074.098-.097s.089-.035.142-.035c.052 0 .099.011.14.034s.073.056.096.097c.022.042.034.09.034.145zm-.27-.176c-.04 0-.074.012-.101.035-.028.024-.045.056-.051.095h.303c-.005-.039-.022-.07-.049-.094s-.061-.036-.102-.036z" fill="url(#k)" transform="matrix(22.4739 0 0 22.4739 132.22663999999 19.24249999999)"/><path d="m.584-.264c0 .009-.001.021-.002.037h-.419c.007.039.027.07.058.093s.069.035.115.035c.059 0 .107-.019.145-.058l.067.077c-.024.029-.054.05-.091.065s-.078.022-.124.022c-.059 0-.11-.012-.155-.035s-.079-.056-.103-.098c-.025-.041-.037-.088-.037-.141 0-.052.012-.099.036-.141.023-.041.056-.074.098-.097s.089-.035.142-.035c.052 0 .099.011.14.034s.073.056.096.097c.022.042.034.09.034.145zm-.27-.176c-.04 0-.074.012-.101.035-.028.024-.045.056-.051.095h.303c-.005-.039-.022-.07-.049-.094s-.061-.036-.102-.036z" fill="url(#l)" transform="matrix(22.4739 0 0 22.4739 146.22663999999 19.24249999999)"/><path d="m.385-.54c.067 0 .121.02.162.059s.061.098.061.175v.306h-.125v-.29c0-.047-.011-.082-.033-.106-.022-.023-.053-.035-.094-.035-.046 0-.082.014-.109.041-.027.028-.04.068-.04.12v.27h-.125v-.534h.119v.069c.021-.025.047-.043.078-.056s.067-.019.106-.019z" fill="url(#m)" transform="matrix(22.4739 0 0 22.4739 160.22663999999 19.24249999999)"/></g></svg>

<?xml version="1.0" encoding="UTF-8" standalone="no"?>
<!DOCTYPE svg PUBLIC "-//W3C//DTD SVG 1.1//EN" "http://www.w3.org/Graphics/SVG/1.1/DTD/svg11.dtd">
<svg width="100%" height="100%" viewBox="0 0 174 24" version="1.1" xmlns="http://www.w3.org/2000/svg" xmlns:xlink="http://www.w3.org/1999/xlink" xml:space="preserve" xmlns:serif="http://www.serif.com/" style="fill-rule:evenodd;clip-rule:evenodd;stroke-linejoin:round;stroke-miterlimit:2;">
    <g transform="matrix(1,0,0,1,-103300,134.299)">
        <g transform="matrix(1,0,0,1,0,121112)">
            <g transform="matrix(0.000760333,0,0,0.000760333,103227,-121175)">
                <path d="M124495,-86698.2L124495,-72764.3C124495,-68919.1 121373,-65797.3 117528,-65797.3L103594,-65797.3C99748.9,-65797.3 96627.1,-68919.1 96627.1,-72764.3L96627.1,-86698.2C96627.1,-90543.4 99748.9,-93665.2 103594,-93665.2L117528,-93665.2C121373,-93665.2 124495,-90543.4 124495,-86698.2Z" style="fill:rgb(0,60,186);"/>
                <clipPath id="_clip1">
                    <path d="M124495,-86698.2L124495,-72764.3C124495,-68919.1 121373,-65797.3 117528,-65797.3L103594,-65797.3C99748.9,-65797.3 96627.1,-68919.1 96627.1,-72764.3L96627.1,-86698.2C96627.1,-90543.4 99748.9,-93665.2 103594,-93665.2L117528,-93665.2C121373,-93665.2 124495,-90543.4 124495,-86698.2Z"/>
                </clipPath>
                <g clip-path="url(#_clip1)">
                    <g transform="matrix(1.38119,0,0,1.38119,-79502.9,-116057)">
                        <path d="M143660,36495.6L135161,36495.6L134593,36495.6L134593,23753.7L131733,25724.4L128508,20713.2L135737,16105.2L143660,16105.2L143660,18621.7L141930,26300.4L143660,33026.7L143660,36495.6Z" style="fill:url(#_Linear2);"/>
                        <g transform="matrix(0.804624,0,0,0.946524,33773.6,-53136.1)">
                            <path d="M136946,94695.6C135890,94695.6 134853,94580.4 133836,94350C132818,94119.6 131916,93745.2 131129,93226.8C130341,92708.4 129703,92041.2 129213,91225.2C128724,90409.2 128479,89425.2 128479,88273.2C128479,87159.6 128791,86199.6 129415,85393.2C130039,84586.8 130860,83972.4 131877,83550L131877,83463.6C131033,83137.2 130313,82604.4 129717,81865.2C129122,81126 128825,80228.4 128825,79172.4C128825,78116.4 129055,77204.4 129516,76436.4C129977,75668.4 130586,75044.4 131345,74564.4C132103,74084.4 132972,73729.2 133951,73498.8C134930,73268.4 135929,73153.2 136946,73153.2C137945,73153.2 138933,73268.4 139913,73498.8C140064,73534.3 143639,73457.3 143784,73498.8L143784,94335.6C143680,94364 140149,94310.2 140042,94335.6C139034,94575.6 138002,94695.6 136946,94695.6Z" style="fill:rgb(36,207,240);"/>
                        </g>
                    </g>
                </g>
            </g>
            <g transform="matrix(1,0,0,1,-2.77336,39.9435)">
                <g transform="matrix(22.4739,0,0,22.4739,103330,-121267)">
                    <path d="M0.299,-0.648C0.246,-0.648 0.22,-0.619 0.22,-0.562L0.22,-0.53L0.367,-0.53L0.367,-0.43L0.224,-0.43L0.224,-0L0.099,-0L0.099,-0.43L0.011,-0.43L0.011,-0.53L0.099,-0.53L0.099,-0.564C0.099,-0.621 0.116,-0.667 0.149,-0.7C0.182,-0.732 0.229,-0.749 0.29,-0.749C0.338,-0.749 0.376,-0.739 0.403,-0.72L0.368,-0.626C0.347,-0.641 0.324,-0.648 0.299,-0.648ZM0.451,-0.742L0.576,-0.742L0.576,-0L0.451,-0L0.451,-0.742Z" style="fill:url(#_Linear3);fill-rule:nonzero;"/>
                </g>
                <g transform="matrix(22.4739,0,0,22.4739,103345,-121267)">
                    <path d="M0.286,-0.54C0.365,-0.54 0.425,-0.521 0.467,-0.484C0.508,-0.446 0.529,-0.389 0.529,-0.313L0.529,-0L0.411,-0L0.411,-0.065C0.396,-0.042 0.374,-0.024 0.346,-0.012C0.317,0.001 0.283,0.007 0.243,0.007C0.203,0.007 0.168,0 0.138,-0.014C0.108,-0.027 0.085,-0.046 0.069,-0.071C0.052,-0.095 0.044,-0.122 0.044,-0.153C0.044,-0.201 0.062,-0.24 0.098,-0.269C0.133,-0.298 0.189,-0.312 0.266,-0.312L0.404,-0.312L0.404,-0.32C0.404,-0.357 0.393,-0.386 0.371,-0.406C0.348,-0.426 0.315,-0.436 0.271,-0.436C0.241,-0.436 0.212,-0.431 0.183,-0.422C0.154,-0.413 0.129,-0.4 0.109,-0.383L0.06,-0.474C0.088,-0.495 0.122,-0.512 0.161,-0.523C0.2,-0.534 0.242,-0.54 0.286,-0.54ZM0.269,-0.084C0.3,-0.084 0.328,-0.091 0.353,-0.106C0.377,-0.12 0.394,-0.14 0.404,-0.167L0.404,-0.229L0.275,-0.229C0.203,-0.229 0.167,-0.205 0.167,-0.158C0.167,-0.135 0.176,-0.117 0.194,-0.104C0.212,-0.091 0.237,-0.084 0.269,-0.084Z" style="fill:url(#_Linear4);fill-rule:nonzero;"/>
                </g>
                <g transform="matrix(22.4739,0,0,22.4739,103359,-121267)">
                    <path d="M0.403,-0.029C0.388,-0.017 0.371,-0.008 0.35,-0.002C0.329,0.004 0.306,0.007 0.283,0.007C0.224,0.007 0.179,-0.008 0.147,-0.039C0.115,-0.07 0.099,-0.114 0.099,-0.173L0.099,-0.43L0.011,-0.43L0.011,-0.53L0.099,-0.53L0.099,-0.652L0.224,-0.652L0.224,-0.53L0.367,-0.53L0.367,-0.43L0.224,-0.43L0.224,-0.176C0.224,-0.15 0.23,-0.13 0.243,-0.117C0.256,-0.103 0.274,-0.096 0.298,-0.096C0.326,-0.096 0.349,-0.103 0.368,-0.118L0.403,-0.029Z" style="fill:url(#_Linear5);fill-rule:nonzero;"/>
                </g>
                <g transform="matrix(22.4739,0,0,22.4739,103374,-121267)">
                    <path d="M0.584,-0.264C0.584,-0.255 0.583,-0.243 0.582,-0.227L0.163,-0.227C0.17,-0.188 0.19,-0.157 0.221,-0.134C0.252,-0.111 0.29,-0.099 0.336,-0.099C0.395,-0.099 0.443,-0.118 0.481,-0.157L0.548,-0.08C0.524,-0.051 0.494,-0.03 0.457,-0.015C0.42,-0 0.379,0.007 0.333,0.007C0.274,0.007 0.223,-0.005 0.178,-0.028C0.133,-0.051 0.099,-0.084 0.075,-0.126C0.05,-0.167 0.038,-0.214 0.038,-0.267C0.038,-0.319 0.05,-0.366 0.074,-0.408C0.097,-0.449 0.13,-0.482 0.172,-0.505C0.214,-0.528 0.261,-0.54 0.314,-0.54C0.366,-0.54 0.413,-0.529 0.454,-0.506C0.495,-0.483 0.527,-0.45 0.55,-0.409C0.572,-0.367 0.584,-0.319 0.584,-0.264ZM0.314,-0.44C0.274,-0.44 0.24,-0.428 0.213,-0.405C0.185,-0.381 0.168,-0.349 0.162,-0.31L0.465,-0.31C0.46,-0.349 0.443,-0.38 0.416,-0.404C0.389,-0.428 0.355,-0.44 0.314,-0.44Z" style="fill:url(#_Linear6);fill-rule:nonzero;"/>
                </g>
                <g transform="matrix(22.4739,0,0,22.4739,103388,-121267)">
                    <path d="M0.082,-0.534L0.207,-0.534L0.207,-0L0.082,-0L0.082,-0.534ZM0.145,-0.622C0.122,-0.622 0.103,-0.629 0.088,-0.644C0.073,-0.658 0.065,-0.676 0.065,-0.697C0.065,-0.718 0.073,-0.736 0.088,-0.751C0.103,-0.765 0.122,-0.772 0.145,-0.772C0.168,-0.772 0.187,-0.765 0.202,-0.752C0.217,-0.738 0.225,-0.721 0.225,-0.7C0.225,-0.678 0.218,-0.66 0.203,-0.645C0.188,-0.63 0.168,-0.622 0.145,-0.622Z" style="fill:url(#_Linear7);fill-rule:nonzero;"/>
                </g>
                <g transform="matrix(22.4739,0,0,22.4739,103395,-121267)">
                    <path d="M0.612,-0.534L0.612,-0.081C0.612,0.107 0.516,0.201 0.324,0.201C0.273,0.201 0.224,0.195 0.178,0.182C0.132,0.169 0.094,0.15 0.064,0.125L0.12,0.031C0.143,0.05 0.173,0.066 0.209,0.078C0.244,0.089 0.28,0.095 0.317,0.095C0.376,0.095 0.419,0.082 0.446,0.055C0.473,0.028 0.487,-0.012 0.487,-0.067L0.487,-0.095C0.466,-0.072 0.44,-0.054 0.409,-0.042C0.378,-0.03 0.345,-0.024 0.308,-0.024C0.257,-0.024 0.212,-0.035 0.171,-0.057C0.13,-0.078 0.097,-0.109 0.074,-0.148C0.05,-0.187 0.038,-0.232 0.038,-0.283C0.038,-0.334 0.05,-0.379 0.074,-0.418C0.097,-0.456 0.13,-0.487 0.171,-0.508C0.212,-0.529 0.257,-0.54 0.308,-0.54C0.347,-0.54 0.382,-0.534 0.414,-0.521C0.445,-0.508 0.472,-0.489 0.493,-0.463L0.493,-0.534L0.612,-0.534ZM0.327,-0.13C0.374,-0.13 0.413,-0.144 0.444,-0.173C0.474,-0.201 0.489,-0.238 0.489,-0.283C0.489,-0.328 0.474,-0.364 0.444,-0.392C0.413,-0.42 0.374,-0.434 0.327,-0.434C0.279,-0.434 0.24,-0.42 0.21,-0.392C0.179,-0.364 0.164,-0.328 0.164,-0.283C0.164,-0.238 0.179,-0.201 0.21,-0.173C0.24,-0.144 0.279,-0.13 0.327,-0.13Z" style="fill:url(#_Linear8);fill-rule:nonzero;"/>
                </g>
                <g transform="matrix(22.4739,0,0,22.4739,103411,-121267)">
                    <path d="M0.385,-0.54C0.452,-0.54 0.506,-0.52 0.547,-0.481C0.588,-0.442 0.608,-0.383 0.608,-0.306L0.608,-0L0.483,-0L0.483,-0.29C0.483,-0.337 0.472,-0.372 0.45,-0.396C0.428,-0.419 0.397,-0.431 0.356,-0.431C0.31,-0.431 0.274,-0.417 0.247,-0.39C0.22,-0.362 0.207,-0.322 0.207,-0.27L0.207,-0L0.082,-0L0.082,-0.742L0.207,-0.742L0.207,-0.472C0.228,-0.494 0.253,-0.511 0.284,-0.523C0.314,-0.534 0.348,-0.54 0.385,-0.54Z" style="fill:url(#_Linear9);fill-rule:nonzero;"/>
                </g>
                <g transform="matrix(22.4739,0,0,22.4739,103426,-121267)">
                    <path d="M0.403,-0.029C0.388,-0.017 0.371,-0.008 0.35,-0.002C0.329,0.004 0.306,0.007 0.283,0.007C0.224,0.007 0.179,-0.008 0.147,-0.039C0.115,-0.07 0.099,-0.114 0.099,-0.173L0.099,-0.43L0.011,-0.43L0.011,-0.53L0.099,-0.53L0.099,-0.652L0.224,-0.652L0.224,-0.53L0.367,-0.53L0.367,-0.43L0.224,-0.43L0.224,-0.176C0.224,-0.15 0.23,-0.13 0.243,-0.117C0.256,-0.103 0.274,-0.096 0.298,-0.096C0.326,-0.096 0.349,-0.103 0.368,-0.118L0.403,-0.029Z" style="fill:url(#_Linear10);fill-rule:nonzero;"/>
                </g>
                <g transform="matrix(22.4739,0,0,22.4739,103435,-121267)">
                    <path d="M0.584,-0.264C0.584,-0.255 0.583,-0.243 0.582,-0.227L0.163,-0.227C0.17,-0.188 0.19,-0.157 0.221,-0.134C0.252,-0.111 0.29,-0.099 0.336,-0.099C0.395,-0.099 0.443,-0.118 0.481,-0.157L0.548,-0.08C0.524,-0.051 0.494,-0.03 0.457,-0.015C0.42,-0 0.379,0.007 0.333,0.007C0.274,0.007 0.223,-0.005 0.178,-0.028C0.133,-0.051 0.099,-0.084 0.075,-0.126C0.05,-0.167 0.038,-0.214 0.038,-0.267C0.038,-0.319 0.05,-0.366 0.074,-0.408C0.097,-0.449 0.13,-0.482 0.172,-0.505C0.214,-0.528 0.261,-0.54 0.314,-0.54C0.366,-0.54 0.413,-0.529 0.454,-0.506C0.495,-0.483 0.527,-0.45 0.55,-0.409C0.572,-0.367 0.584,-0.319 0.584,-0.264ZM0.314,-0.44C0.274,-0.44 0.24,-0.428 0.213,-0.405C0.185,-0.381 0.168,-0.349 0.162,-0.31L0.465,-0.31C0.46,-0.349 0.443,-0.38 0.416,-0.404C0.389,-0.428 0.355,-0.44 0.314,-0.44Z" style="fill:url(#_Linear11);fill-rule:nonzero;"/>
                </g>
                <g transform="matrix(22.4739,0,0,22.4739,103449,-121267)">
                    <path d="M0.584,-0.264C0.584,-0.255 0.583,-0.243 0.582,-0.227L0.163,-0.227C0.17,-0.188 0.19,-0.157 0.221,-0.134C0.252,-0.111 0.29,-0.099 0.336,-0.099C0.395,-0.099 0.443,-0.118 0.481,-0.157L0.548,-0.08C0.524,-0.051 0.494,-0.03 0.457,-0.015C0.42,-0 0.379,0.007 0.333,0.007C0.274,0.007 0.223,-0.005 0.178,-0.028C0.133,-0.051 0.099,-0.084 0.075,-0.126C0.05,-0.167 0.038,-0.214 0.038,-0.267C0.038,-0.319 0.05,-0.366 0.074,-0.408C0.097,-0.449 0.13,-0.482 0.172,-0.505C0.214,-0.528 0.261,-0.54 0.314,-0.54C0.366,-0.54 0.413,-0.529 0.454,-0.506C0.495,-0.483 0.527,-0.45 0.55,-0.409C0.572,-0.367 0.584,-0.319 0.584,-0.264ZM0.314,-0.44C0.274,-0.44 0.24,-0.428 0.213,-0.405C0.185,-0.381 0.168,-0.349 0.162,-0.31L0.465,-0.31C0.46,-0.349 0.443,-0.38 0.416,-0.404C0.389,-0.428 0.355,-0.44 0.314,-0.44Z" style="fill:url(#_Linear12);fill-rule:nonzero;"/>
                </g>
                <g transform="matrix(22.4739,0,0,22.4739,103463,-121267)">
                    <path d="M0.385,-0.54C0.452,-0.54 0.506,-0.52 0.547,-0.481C0.588,-0.442 0.608,-0.383 0.608,-0.306L0.608,-0L0.483,-0L0.483,-0.29C0.483,-0.337 0.472,-0.372 0.45,-0.396C0.428,-0.419 0.397,-0.431 0.356,-0.431C0.31,-0.431 0.274,-0.417 0.247,-0.39C0.22,-0.362 0.207,-0.322 0.207,-0.27L0.207,-0L0.082,-0L0.082,-0.534L0.201,-0.534L0.201,-0.465C0.222,-0.49 0.248,-0.508 0.279,-0.521C0.31,-0.534 0.346,-0.54 0.385,-0.54Z" style="fill:url(#_Linear13);fill-rule:nonzero;"/>
                </g>
            </g>
        </g>
    </g>
    <defs>
        <linearGradient id="_Linear2" x1="0" y1="0" x2="1" y2="0" gradientUnits="userSpaceOnUse" gradientTransform="matrix(19189,0,0,19189,128508,24020.7)"><stop offset="0" style="stop-color:rgb(32,171,244);stop-opacity:1"/><stop offset="1" style="stop-color:rgb(32,171,244);stop-opacity:0"/></linearGradient>
        <linearGradient id="_Linear3" x1="0" y1="0" x2="1" y2="0" gradientUnits="userSpaceOnUse" gradientTransform="matrix(6.80836,0,0,6.80836,-0.0879133,-0.238113)"><stop offset="0" style="stop-color:rgb(36,207,240);stop-opacity:1"/><stop offset="1" style="stop-color:rgb(25,99,253);stop-opacity:1"/></linearGradient>
        <linearGradient id="_Linear4" x1="0" y1="0" x2="1" y2="0" gradientUnits="userSpaceOnUse" gradientTransform="matrix(6.80836,0,0,6.80836,-0.745913,-0.238113)"><stop offset="0" style="stop-color:rgb(36,207,240);stop-opacity:1"/><stop offset="1" style="stop-color:rgb(25,99,253);stop-opacity:1"/></linearGradient>
        <linearGradient id="_Linear5" x1="0" y1="0" x2="1" y2="0" gradientUnits="userSpaceOnUse" gradientTransform="matrix(6.80836,0,0,6.80836,-1.35291,-0.238113)"><stop offset="0" style="stop-color:rgb(36,207,240);stop-opacity:1"/><stop offset="1" style="stop-color:rgb(25,99,253);stop-opacity:1"/></linearGradient>
        <linearGradient id="_Linear6" x1="0" y1="0" x2="1" y2="0" gradientUnits="userSpaceOnUse" gradientTransform="matrix(6.80836,0,0,6.80836,-2.05291,-0.238113)"><stop offset="0" style="stop-color:rgb(36,207,240);stop-opacity:1"/><stop offset="1" style="stop-color:rgb(25,99,253);stop-opacity:1"/></linearGradient>
        <linearGradient id="_Linear7" x1="0" y1="0" x2="1" y2="0" gradientUnits="userSpaceOnUse" gradientTransform="matrix(6.80836,0,0,6.80836,-2.67491,-0.238113)"><stop offset="0" style="stop-color:rgb(36,207,240);stop-opacity:1"/><stop offset="1" style="stop-color:rgb(25,99,253);stop-opacity:1"/></linearGradient>
        <linearGradient id="_Linear8" x1="0" y1="0" x2="1" y2="0" gradientUnits="userSpaceOnUse" gradientTransform="matrix(6.80836,0,0,6.80836,-2.96391,-0.238113)"><stop offset="0" style="stop-color:rgb(36,207,240);stop-opacity:1"/><stop offset="1" style="stop-color:rgb(25,99,253);stop-opacity:1"/></linearGradient>
        <linearGradient id="_Linear9" x1="0" y1="0" x2="1" y2="0" gradientUnits="userSpaceOnUse" gradientTransform="matrix(6.80836,0,0,6.80836,-3.65791,-0.238113)"><stop offset="0" style="stop-color:rgb(36,207,240);stop-opacity:1"/><stop offset="1" style="stop-color:rgb(25,99,253);stop-opacity:1"/></linearGradient>
        <linearGradient id="_Linear10" x1="0" y1="0" x2="1" y2="0" gradientUnits="userSpaceOnUse" gradientTransform="matrix(6.80836,0,0,6.80836,-4.34291,-0.238113)"><stop offset="0" style="stop-color:rgb(36,207,240);stop-opacity:1"/><stop offset="1" style="stop-color:rgb(25,99,253);stop-opacity:1"/></linearGradient>
        <linearGradient id="_Linear11" x1="0" y1="0" x2="1" y2="0" gradientUnits="userSpaceOnUse" gradientTransform="matrix(6.80836,0,0,6.80836,-4.74891,-0.238113)"><stop offset="0" style="stop-color:rgb(36,207,240);stop-opacity:1"/><stop offset="1" style="stop-color:rgb(25,99,253);stop-opacity:1"/></linearGradient>
        <linearGradient id="_Linear12" x1="0" y1="0" x2="1" y2="0" gradientUnits="userSpaceOnUse" gradientTransform="matrix(6.80836,0,0,6.80836,-5.37091,-0.238113)"><stop offset="0" style="stop-color:rgb(36,207,240);stop-opacity:1"/><stop offset="1" style="stop-color:rgb(25,99,253);stop-opacity:1"/></linearGradient>
        <linearGradient id="_Linear13" x1="0" y1="0" x2="1" y2="0" gradientUnits="userSpaceOnUse" gradientTransform="matrix(6.80836,0,0,6.80836,-5.99291,-0.238113)"><stop offset="0" style="stop-color:rgb(36,207,240);stop-opacity:1"/><stop offset="1" style="stop-color:rgb(25,99,253);stop-opacity:1"/></linearGradient>
    </defs>
</svg>
